X:1
T:Title
%%score { 1 | 2 }
L:1/8
Q:1/4=150
M:6/4
K:A
V:1 treble nm="Grand Piano"
V:2 treble 
V:1
 c2 c2 c2 d4 c2 | [FB]6 F6 | E2 G2 B2 e4 d2 | c12 | [Ec]2 [Ec]2 [Ec]2 [Fd]4 [Ec]2 | [FB]6 [DF]6 | %6
w: W.~Stillman~Martin * * * *||||||
 [EG]2 [EB]2 [^DA]2 [EG]4 [DF]2 | [B,E]12 | [Ec]6 [DB]4 [Ec]2 | [DB]6 [CA]6 | E6 D4 E2 | D6 C6 | %12
w: ||||||
 C2 [B,D]2 [=C^D]2 [^CE]6 | [CA]2 [DB]2 [^D=c]2 [E^c]6 | [Ee]6 A2 B2 c2 | B6 [CA]6 |] %16
w: ||||
V:2
 [A,E]2 [A,E]2 [A,E]2 [A,F]4 [A,E]2 | [D,D]6 [D,A,D]6 | %2
 [E,G,D]2 [E,B,E]2 [E,G,E]2 [G,B,E]4 [G,B,E]2 | [A,E]12 | %4
 [A,,A,]2 [A,,A,]2 [A,,A,]2 [A,,A,]4 [A,,A,]2 | [D,D]6 [D,A,]6 | %6
 [B,,B,]2 [B,,G,]2 [B,,F,]2 [B,,B,]4 [B,,A,]2 | [E,G,]12 | [A,,A,]6 [A,,A,]4 [A,,A,]2 | %9
 [A,,E,]6 [A,,E,]6 | [E,A,C]6 [E,G,B,]4 [E,A,C]2 | [E,G,B,]6 [A,,E,A,]6 | %12
 [A,,E,A,]2 [A,,A,]2 [A,,A,]2 [A,,A,]6 | [A,,A,]2 [A,,A,]2 [A,,A,]2 [A,,A,]6 | %14
 [C,A,]6 [F,A,C]2 [E,G,D]2 [A,E]2 | [E,G,D]6 [A,,E,]6 |] %16

